flaticon/interaction/archive-19.svg

<svg xmlns="http://www.w3.org/2000/svg" width="32" height="32" viewBox="0 0 24 24">
    <path d="M 18.800781 14.398438 C 16.152344 14.398438 14 16.554688 14 19.199219 C 14 21.847656 16.152344 24 18.800781 24 C 21.445312 24 23.601562 21.847656 23.601562 19.199219 C 23.601562 16.554688 21.445312 14.398438 18.800781 14.398438 Z M 18.800781 23.199219 C 16.59375 23.199219 14.800781 21.40625 14.800781 19.199219 C 14.800781 16.996094 16.59375 15.199219 18.800781 15.199219 C 21.003906 15.199219 22.800781 16.996094 22.800781 19.199219 C 22.800781 21.40625 21.003906 23.199219 18.800781 23.199219 Z M 18.800781 23.199219"/>
    <path d="M21.199219 18.800781L19.199219 18.800781 19.199219 16.800781C19.199219 16.578125 19.019531 16.398438 18.800781 16.398438 18.578125 16.398438 18.398438 16.578125 18.398438 16.800781L18.398438 19.199219C18.398438 19.421875 18.578125 19.601562 18.800781 19.601562L21.199219 19.601562C21.421875 19.601562 21.601562 19.421875 21.601562 19.199219 21.601562 18.980469 21.421875 18.800781 21.199219 18.800781zM9.003906 7.199219L13.398438 7.199219C14.171875 7.199219 14.800781 6.570312 14.800781 5.796875L14.800781 5.199219C14.800781 4.980469 14.621094 4.800781 14.398438 4.800781 14.179688 4.800781 14 4.980469 14 5.199219L14 5.796875C14 6.128906 13.730469 6.398438 13.398438 6.398438L9.003906 6.398438C8.671875 6.398438 8.398438 6.128906 8.398438 5.796875L8.398438 5.199219C8.398438 4.980469 8.222656 4.800781 8 4.800781 7.777344 4.800781 7.601562 4.980469 7.601562 5.199219L7.601562 5.796875C7.601562 6.570312 8.230469 7.199219 9.003906 7.199219zM8 16.398438C7.777344 16.398438 7.601562 16.578125 7.601562 16.800781L7.601562 17.398438C7.601562 18.171875 8.230469 18.800781 9.003906 18.800781L12 18.800781C12.222656 18.800781 12.398438 18.621094 12.398438 18.398438 12.398438 18.179688 12.222656 18 12 18L9.003906 18C8.671875 18 8.398438 17.730469 8.398438 17.398438L8.398438 16.800781C8.398438 16.578125 8.222656 16.398438 8 16.398438zM8 16.398438"/>
    <path d="M 13.199219 23.199219 L 1.53125 23.199219 C 1.347656 23.199219 1.199219 23.050781 1.199219 22.867188 L 1.199219 12.398438 L 21.199219 12.398438 L 21.199219 13.199219 C 21.199219 13.421875 21.378906 13.601562 21.601562 13.601562 C 21.820312 13.601562 22 13.421875 22 13.199219 L 22 1.132812 C 22 0.507812 21.492188 0 20.867188 0 L 1.53125 0 C 0.910156 0 0.398438 0.507812 0.398438 1.132812 L 0.398438 22.867188 C 0.398438 23.492188 0.910156 24 1.53125 24 L 13.199219 24 C 13.421875 24 13.601562 23.820312 13.601562 23.601562 C 13.601562 23.378906 13.421875 23.199219 13.199219 23.199219 Z M 1.53125 0.800781 L 20.867188 0.800781 C 21.050781 0.800781 21.199219 0.949219 21.199219 1.132812 L 21.199219 11.601562 L 1.199219 11.601562 L 1.199219 1.132812 C 1.199219 0.949219 1.347656 0.800781 1.53125 0.800781 Z M 1.53125 0.800781"/>
</svg>

<svg xmlns="http://www.w3.org/2000/svg" width="32" height="32" viewBox="0 0 24 24">
    <path d="M18.8 14.398A4.807 4.807 0 0 0 14 19.2C14 21.848 16.152 24 18.8 24c2.645 0 4.802-2.152 4.802-4.8a4.81 4.81 0 0 0-4.801-4.802zm0 8.801c-2.206 0-4-1.793-4-4 0-2.203 1.794-4 4-4 2.204 0 4 1.797 4 4 0 2.207-1.796 4-4 4zm0 0"/>
    <path d="M21.2 18.8h-2v-2a.401.401 0 1 0-.802 0v2.4c0 .222.18.402.403.402h2.398a.401.401 0 0 0 0-.8zm0 0M9.004 7.2h4.394c.774 0 1.403-.63 1.403-1.403v-.598a.401.401 0 0 0-.801 0v.598c0 .332-.27.601-.602.601H9.004a.605.605 0 0 1-.606-.601v-.598a.398.398 0 1 0-.796 0v.598c0 .773.628 1.402 1.402 1.402zm0 0M8 16.398a.398.398 0 0 0-.398.403v.597c0 .774.628 1.403 1.402 1.403H12c.223 0 .398-.18.398-.403A.398.398 0 0 0 12 18H9.004a.605.605 0 0 1-.606-.602v-.597A.398.398 0 0 0 8 16.398zm0 0"/>
    <path d="M13.2 23.2H1.53a.332.332 0 0 1-.332-.333V12.398h20v.801a.401.401 0 0 0 .8 0l.001-12.066C22 .508 21.492 0 20.867 0H1.531C.911 0 .398.508.398 1.133v21.734C.398 23.492.91 24 1.531 24H13.2a.401.401 0 1 0 0-.8zM1.53.8h19.336c.184 0 .332.15.332.333v10.469h-20V1.132c0-.183.149-.331.332-.331zm0 0"/>
</svg>
